X: 1556
T: Chief O'Neill's Hornpipe.
T: ro.ga an taoisai.g ui niall.
N:"Collected from Cronin"
R:Hornpipe
B:O'Neill's 1556
M:C|
K:D
(de)|fef(g af)ge|fde(ddc)AG|(FE)(FD) FGA(B|c)AdcA2 (de)|
fef(g af)ge|fdc(d dc)AG|(FE)(FD) GBAG|F2 D2 D2:|
(DE)|(FEF)(D FG)AB|cAd(B cA)GB|Add(e fd)ed|c(Adc) A2(de)|
fef(g af)ge|fde(d dc)AG|(FE)(FD) GBAG|F2 D2 D2:|


